src/assets/img/accept.svg

<?xml version="1.0" encoding="UTF-8"?>
<svg fill="none" viewBox="0 0 70 70" xmlns="http://www.w3.org/2000/svg">
    <path d="m35 70c19.33 0 35-15.67 35-35s-15.67-35-35-35-35 15.67-35 35 15.67 35 35 35zm-11.023-23.468v-1e-4l-11.249-11.25 5.6247-5.6247 11.25 11.25 22.499-22.499 5.6247 5.6247-28.124 28.124-5.6247-5.6247z" clip-rule="evenodd" fill="#00EBC7" fill-rule="evenodd"/>
</svg>

<svg width="70" height="70" viewBox="0 0 70 70" fill="none" xmlns="http://www.w3.org/2000/svg">
<path fill-rule="evenodd" clip-rule="evenodd" d="M35 70C54.33 70 70 54.33 70 35C70 15.67 54.33 0 35 0C15.67 0 0 15.67 0 35C0 54.33 15.67 70 35 70ZM23.977 46.5321L23.977 46.532L12.7276 35.2825L18.3523 29.6578L29.6018 40.9073L52.1005 18.4085L57.7252 24.0332L29.6017 52.1568L23.977 46.5321Z" fill="#00EBC7"/>
</svg>
